X:1
T:Ben Lowry's -- Reel
R:reel
B:Ryan's Mammoth Collection
N: 190
Z: Contributed by Ray Davies,  ray:davies99.freeserve.co.uk
M:2/4
L:1/16
K:G
uBA|\
.G2(GA) (Bd).d.e | (ef).g.e (dB).B2 | .e.f(ge) .d.B(GA) | (BA)(AB) (Ac).B.A |
.G2(GA) (Bd).d2 | (efg).e (dB).B2 | {a}.g(fge) (dBg).B | (dB).A.B G2:|
|:d2|\
dbag efge | dBgB (BA).A2 | dbag efge | .d.g(fa) .g2(ga) |
(ba).g.f (gf).e.d | (eg).d.c (BA).A2 | {A}GFGA (Bd).d2 | (eg).f.a g2:|
